symbols/web/surround_sound/materialsymbolsrounded/surround_sound_wght300_20px.svg

<svg xmlns="http://www.w3.org/2000/svg" height="20" width="20"><path d="M10.021 12.25q.937 0 1.594-.656.656-.656.656-1.594 0-.938-.656-1.594-.657-.656-1.594-.656-.938 0-1.594.656-.656.656-.656 1.594 0 .938.656 1.594.656.656 1.594.656Zm4.541 1.042q.521-.709.792-1.552.271-.844.271-1.74t-.271-1.74q-.271-.843-.792-1.531-.166-.25-.458-.26-.292-.011-.521.219-.166.166-.187.395-.021.229.125.459.375.541.573 1.166.198.625.198 1.292t-.188 1.281q-.187.615-.562 1.157-.146.229-.136.479.011.25.177.416.229.229.521.219.292-.01.458-.26Zm-8.104.041v-.021q.167-.166.177-.406.011-.239-.135-.468-.375-.542-.562-1.167Q5.75 10.646 5.75 10q0-.667.198-1.292t.573-1.166q.146-.23.125-.459-.021-.229-.188-.395-.229-.23-.52-.219-.292.01-.459.26-.541.688-.802 1.531-.26.844-.26 1.74t.271 1.74q.27.843.791 1.552.167.25.459.26.291.01.52-.219ZM3.667 16.25q-.667 0-1.125-.458-.459-.459-.459-1.125V5.333q0-.666.459-1.125Q3 3.75 3.667 3.75h12.666q.667 0 1.125.458.459.459.459 1.125v9.334q0 .666-.459 1.125-.458.458-1.125.458Zm0-1.333q-.105 0-.177-.073-.073-.073-.073-.177V5.333q0-.104.073-.177.072-.073.177-.073-.105 0-.177.073-.073.073-.073.177v9.334q0 .104.073.177.072.073.177.073Zm0 0h12.666q.105 0 .177-.073.073-.073.073-.177V5.333q0-.104-.073-.177-.072-.073-.177-.073H3.667q-.105 0-.177.073-.073.073-.073.177v9.334q0 .104.073.177.072.073.177.073Z"/></svg>

<svg xmlns="http://www.w3.org/2000/svg" height="20" width="20"><path d="M10.021 12.25Q10.958 12.25 11.615 11.594Q12.271 10.938 12.271 10Q12.271 9.062 11.615 8.406Q10.958 7.75 10.021 7.75Q9.083 7.75 8.427 8.406Q7.771 9.062 7.771 10Q7.771 10.938 8.427 11.594Q9.083 12.25 10.021 12.25ZM14.562 13.292Q15.083 12.583 15.354 11.74Q15.625 10.896 15.625 10Q15.625 9.104 15.354 8.26Q15.083 7.417 14.562 6.729Q14.396 6.479 14.104 6.469Q13.812 6.458 13.583 6.688Q13.417 6.854 13.396 7.083Q13.375 7.312 13.521 7.542Q13.896 8.083 14.094 8.708Q14.292 9.333 14.292 10Q14.292 10.667 14.104 11.281Q13.917 11.896 13.542 12.438Q13.396 12.667 13.406 12.917Q13.417 13.167 13.583 13.333Q13.812 13.562 14.104 13.552Q14.396 13.542 14.562 13.292ZM6.458 13.333V13.312Q6.625 13.146 6.635 12.906Q6.646 12.667 6.5 12.438Q6.125 11.896 5.938 11.271Q5.75 10.646 5.75 10Q5.75 9.333 5.948 8.708Q6.146 8.083 6.521 7.542Q6.667 7.312 6.646 7.083Q6.625 6.854 6.458 6.688Q6.229 6.458 5.938 6.469Q5.646 6.479 5.479 6.729Q4.938 7.417 4.677 8.26Q4.417 9.104 4.417 10Q4.417 10.896 4.688 11.74Q4.958 12.583 5.479 13.292Q5.646 13.542 5.938 13.552Q6.229 13.562 6.458 13.333ZM3.667 16.25Q3 16.25 2.542 15.792Q2.083 15.333 2.083 14.667V5.333Q2.083 4.667 2.542 4.208Q3 3.75 3.667 3.75H16.333Q17 3.75 17.458 4.208Q17.917 4.667 17.917 5.333V14.667Q17.917 15.333 17.458 15.792Q17 16.25 16.333 16.25ZM3.667 14.917Q3.562 14.917 3.49 14.844Q3.417 14.771 3.417 14.667V5.333Q3.417 5.229 3.49 5.156Q3.562 5.083 3.667 5.083Q3.562 5.083 3.49 5.156Q3.417 5.229 3.417 5.333V14.667Q3.417 14.771 3.49 14.844Q3.562 14.917 3.667 14.917ZM3.667 14.917H16.333Q16.438 14.917 16.51 14.844Q16.583 14.771 16.583 14.667V5.333Q16.583 5.229 16.51 5.156Q16.438 5.083 16.333 5.083H3.667Q3.562 5.083 3.49 5.156Q3.417 5.229 3.417 5.333V14.667Q3.417 14.771 3.49 14.844Q3.562 14.917 3.667 14.917Z"/></svg>
